!!!COM: Haydn, Franz Joseph
!!!OPR: Symphony in B-flat Major
!!!OTL: Affettuoso 
!!!OMV: 4
!!!SCT: H I:85
!!!SCA: Thematisch-bibliographisches Werkevererzeichnis (A. van Hoboken)
!!!YOR: RISM H 3039, Choron Edition
!!!EED: Frances Bennion
!!!ENC: Frances Bennion
!!!CDT: 1732/3/31/-1809/5/31/
!!!OCY: Österreich
!!!YEC: Copyright (c) 1994, 2000 Center for Computer Assisted Research in the Humanities
!!!YEM: Rights to all derivative editions reserved.
!!!YEM: Refer to licensing agreement for further details.
!!!YEN: United States of America
**kern	**kern	**kern	**kern	**kern	**kern	**kern	**kern	**kern	**kern	**kern
*k[]	*k[b-e-]	*k[b-e-]	*k[]	*k[b-e-]	*k[b-e-]	*k[b-e-]	*k[b-e-]	*k[b-e-]	*k[b-e-]	*k[b-e-]
*C:	*C:	*C:	*C:	*C:	*C:	*C:	*C:	*C:	*C:	*C:
*clefF	*clefF4	*clefF4	*clefF	*clefF	*clefF	*clefF	*clefF4	*clefF	*clefF	*clefC3
*M2/4	*M2/4	*M2/4	*M2/4	*M2/4	*M2/4	*M2/4	*M2/4	*M2/4	*M2/4	*M2/4
*tb32	*tb32	*tb32	*tb32	*tb32	*tb32	*tb32	*tb32	*tb32	*tb32	*tb32
=0-	=0-	=0-	=0-	=0-	=0-	=0-	=0-	=0-	=0-	=0-
4.r	4.r	4.r	4.r	4.r	4.r	4.r	4.r	4.r	4.r	4.r
8r	8r	8r	8r	8r	8r	8r	8r	8ff	8ff	8r
=1	=1	=1	=1	=1	=1	=1	=1	=1	=1	=1
2r	8r	8r	2r	2r	2r	2r	2r	4ff	4ff	8r
.	8A	8A	.	.	.	.	.	.	.	8A
.	8B-	8B-	.	.	.	.	.	8dd	8dd	8B-
.	8d	8d	.	.	.	.	.	8b-	8b-	8d
=2	=2	=2	=2	=2	=2	=2	=2	=2	=2	=2
2r	4.f	4.f	2r	2r	2r	2r	2r	8a	8a	4.f
.	.	.	.	.	.	.	.	8cc	8cc	.
.	.	.	.	.	.	.	.	8f	8f	.
.	8e-	8e-	.	.	.	.	.	8a	8a	8e-
=3	=3	=3	=3	=3	=3	=3	=3	=3	=3	=3
2r	8d	8d	2r	2r	2r	2r	2r	8b-	8b-	8d
.	8A	8A	.	.	.	.	.	8cc	8cc	8f
.	8B-	8B-	.	.	.	.	.	8dd	8dd	8f
.	8E-	8E-	.	.	.	.	.	8ee-	8cc	8g
=4	=4	=4	=4	=4	=4	=4	=4	=4	=4	=4
2r	8F	8F	2r	2r	2r	2r	2r	4dd	4b-	4f
.	8FF	8FF	.	.	.	.	.	.	.	.
.	8FF	8FF	.	.	.	.	.	8cc	8a	4r
.	8r	8r	.	.	.	.	.	8ff	8ff	.
=5	=5	=5	=5	=5	=5	=5	=5	=5	=5	=5
2r	8r	8r	2r	2r	2r	2r	2r	4ff	4ff	8r
.	8A	8A	.	.	.	.	.	.	.	8c
.	8B-	8B-	.	.	.	.	.	8dd	8dd	8d
.	8d	8d	.	.	.	.	.	8b-	8b-	8d
=6	=6	=6	=6	=6	=6	=6	=6	=6	=6	=6
2r	8r	8r	2r	2r	2r	2r	2r	4gg	4gg	8r
.	8B	8B	.	.	.	.	.	.	.	8d
.	8c	8c	.	.	.	.	.	8ee-	8ee-	8e-
.	8e-	8e-	.	.	.	.	.	8cc	8cc	8e-
=7	=7	=7	=7	=7	=7	=7	=7	=7	=7	=7
2r	2F	2F	2r	2r	2r	2r	2r	8b-	8b-	8d
.	.	.	.	.	.	.	.	8b-	8b-	8d
.	.	.	.	.	.	.	.	8cc	8cc	8e-
.	.	.	.	.	.	.	.	16b-	16b-	16d
.	.	.	.	.	.	.	.	16a	16a	16c
=8	=8	=8	=8	=8	=8	=8	=8	=8	=8	=8
4.r	8B-	8B-	4.r	4.r	4.r	4.r	4r	4b-	4b-	4B-
.	8F	8F	.	.	.	.	.	.	.	.
.	8BB-	8BB-	.	.	.	.	8r	8r	8r	8r
8r	8r	8r	8r	8r	8r	8r	8r	8bb-	8r	8r
=9	=9	=9	=9	=9	=9	=9	=9	=9	=9	=9
2r	8r	8r	2r	2r	2r	2r	2r	4bb-	8r	8r
.	8d	8d	.	.	.	.	.	.	8f	8d
.	8c	8c	.	.	.	.	.	8aa	8e-	8c
.	8r	8r	.	.	.	.	.	8ccc	8r	8r
=10	=10	=10	=10	=10	=10	=10	=10	=10	=10	=10
2r	8r	8r	2r	2r	2r	2r	2r	4ee-	8r	8r
.	8A	8A	.	.	.	.	.	.	8c	8f
.	8B-	8B-	.	.	.	.	.	8dd	8d	8f
.	8r	8r	.	.	.	.	.	8gg	8b-	8r
=11	=11	=11	=11	=11	=11	=11	=11	=11	=11	=11
2r	8r	8r	2r	2r	2r	2r	2r	8.gg	8.b-	8r
.	8B-	8B-	.	.	.	.	.	.	.	8d
.	.	.	.	.	.	.	.	32aa	32cc	.
.	.	.	.	.	.	.	.	32gg	32b-	.
.	8c	8c	.	.	.	.	.	8ff	8a	8c
.	8C	8C	.	.	.	.	.	8ee	8g	8B-
=12	=12	=12	=12	=12	=12	=12	=12	=12	=12	=12
2r	8FF	8FF	2r	2r	2r	2r	2r	4ee	4g	4B-
.	8F	8F	.	.	.	.	.	.	.	.
.	8F	8F	.	.	.	.	.	8ff	8a	8A
.	8F	8F	.	.	.	.	.	8dd	8b	8r
=13	=13	=13	=13	=13	=13	=13	=13	=13	=13	=13
2r	8FF	8FF	2r	2r	2r	2r	2r	4dd	4b	8F
.	8F	8F	.	.	.	.	.	.	.	8f
.	8F	8F	.	.	.	.	.	8ee-	8cc	8f
.	8F	8F	.	.	.	.	.	8cc	8a	8f
=14	=14	=14	=14	=14	=14	=14	=14	=14	=14	=14
2r	8FF	8FF	2r	2r	2r	2r	2r	4cc	4a	8F
.	8F	8F	.	.	.	.	.	.	.	8f
.	8F	8F	.	.	.	.	.	8dd	8b-	8f
.	8F	8F	.	.	.	.	.	8b-	8g	8f
=15	=15	=15	=15	=15	=15	=15	=15	=15	=15	=15
2r	8FF	8FF	2r	2r	2r	2r	2r	8a	8f	8F
.	8F	8F	.	.	.	.	.	8a	8f	8F
.	8F	8F	.	.	.	.	.	8g	8e	8F
.	8F	8F	.	.	.	.	.	16f	16d	8F
.	.	.	.	.	.	.	.	16g	16e	.
=16	=16	=16	=16	=16	=16	=16	=16	=16	=16	=16
2r	8FF	8FF	2r	2r	2r	2r	2r	4.f	4.f	8F
.	8F	8F	.	.	.	.	.	.	.	8f
.	8FF	8FF	.	.	.	.	.	.	.	8F
.	8r	8r	.	.	.	.	.	8ff	8ff	8r
=17	=17	=17	=17	=17	=17	=17	=17	=17	=17	=17
2r	8r	8r	2r	2r	2r	2r	2r	4ff	4ff	8r
.	8A	8A	.	.	.	.	.	.	.	8A
.	8B-	8B-	.	.	.	.	.	8dd	8dd	8B-
.	8d	8d	.	.	.	.	.	8b-	8b-	8d
=18	=18	=18	=18	=18	=18	=18	=18	=18	=18	=18
2r	4.f	4.f	2r	2r	2r	2r	2r	8a	8a	[2f
.	.	.	.	.	.	.	.	8cc	8cc	.
.	.	.	.	.	.	.	.	8f	8f	.
.	8e-	8e-	.	.	.	.	.	8a	8a	.
=19	=19	=19	=19	=19	=19	=19	=19	=19	=19	=19
2r	8d	8d	2r	2r	2r	2r	2r	8b-	8b-	4.f]
.	8A	8A	.	.	.	.	.	8cc	8cc	.
.	8B-	8B-	.	.	.	.	.	8dd	8dd	.
.	8E-	8E-	.	.	.	.	.	8ee-	8cc	8g
=20	=20	=20	=20	=20	=20	=20	=20	=20	=20	=20
2r	8F	8F	2r	2r	2r	2r	2r	4dd	4b-	8f
.	8FF	8FF	.	.	.	.	.	.	.	8F
.	8FF	8FF	.	.	.	.	.	8cc	8a	8F
.	8r	8r	.	.	.	.	.	8ff	8ff	8r
=21	=21	=21	=21	=21	=21	=21	=21	=21	=21	=21
2r	8r	8r	2r	2r	2r	2r	2r	4ff	4ff	8r
.	8A	8A	.	.	.	.	.	.	.	8c
.	8B-	8B-	.	.	.	.	.	8dd	8dd	8d
.	8d	8d	.	.	.	.	.	8b-	8b-	8d
=22	=22	=22	=22	=22	=22	=22	=22	=22	=22	=22
2r	8r	8r	2r	2r	2r	2r	2r	4gg	4gg	8r
.	8B	8B	.	.	.	.	.	.	.	8d
.	8c	8c	.	.	.	.	.	8ee-	8ee-	8e-
.	8e-	8e-	.	.	.	.	.	8cc	8cc	8e-
=23	=23	=23	=23	=23	=23	=23	=23	=23	=23	=23
2r	2F	2F	2r	2r	2r	2r	2r	8b-	8b-	8d
.	.	.	.	.	.	.	.	8b-	8b-	8d
.	.	.	.	.	.	.	.	8cc	8cc	8e-
.	.	.	.	.	.	.	.	16b-	16b-	16d
.	.	.	.	.	.	.	.	16a	16a	16c
=24	=24	=24	=24	=24	=24	=24	=24	=24	=24	=24
4.r	8BB-	8BB-	4.r	4.r	4.r	4.r	4.r	4b-	4b-	4B-
.	8B-	8B-	.	.	.	.	.	.	.	.
.	8BB-	8BB-	.	.	.	.	.	8r	8r	8r
8r	8r	8r	8r	8ff	8ff	8ff	8r	8ff	8r	8r
=25	=25	=25	=25	=25	=25	=25	=25	=25	=25	=25
2cc	8BB-	8BB-	2e	4ff	2dd	4ff	2B-	4ff	2dd 2f	2B-
.	8B-	8B-	.	.	.	.	.	.	.	.
.	8B-	8B-	.	8dd	.	8dd	.	8dd	.	.
.	8B-	8B-	.	8bb-	.	8bb-	.	8bb-	.	.
=26	=26	=26	=26	=26	=26	=26	=26	=26	=26	=26
4dd	4c	4c	4g	16aa	4ee-	16aa	4c	16aa	4ee- 4f	4c
.	.	.	.	16bb-	.	16bb-	.	16bb-	.	.
.	.	.	.	16aa	.	16aa	.	16aa	.	.
.	.	.	.	16gg	.	16gg	.	16gg	.	.
4r	4r	4r	4r	8ff	4r	8ff	4r	8ff	4r	4r
.	.	.	.	8ccc	.	8ccc	.	8ccc	.	.
=27	=27	=27	=27	=27	=27	=27	=27	=27	=27	=27
2dd	8AA	8AA	2g	4ccc	2cc	4ccc	2A	4ccc	2f 2cc	4.e-
.	8A	8A	.	.	.	.	.	.	.	.
.	8A	8A	.	8aa	.	8aa	.	8aa	.	.
.	8A	8A	.	8ee-	.	8ee-	.	8ee-	.	8c
=28	=28	=28	=28	=28	=28	=28	=28	=28	=28	=28
4ee	4B-	4B-	4cc	16dd	4dd	16dd	4B-	16dd	16dd	4B-
.	.	.	.	16ee-	.	16ee-	.	16ee-	16ee-	.
.	.	.	.	16dd	.	16dd	.	16dd	16dd	.
.	.	.	.	16cc	.	16cc	.	16cc	16cc	.
4r	4r	4r	4r	8b-	8r	8b-	4r	8b-	8b-	4r
.	.	.	.	8ddd	8dd	8ddd	.	8ddd	8dd	.
=29	=29	=29	=29	=29	=29	=29	=29	=29	=29	=29
2r	8r	8r	2r	4ddd	4dd	4ddd	8r	4ddd	4dd	8r
.	8F#	8F#	.	.	.	.	8F#	.	.	8F#
.	8G	8G	.	8bb-	8b-	8bb-	8G	8bb-	8b-	8G
.	8B-	8B-	.	8gg	8g	8gg	8B-	8gg	8g	8B-
=30	=30	=30	=30	=30	=30	=30	=30	=30	=30	=30
2r	8d	8d	2r	16ff#	16f#	16ff#	8d	16ff#	16f#	8d
.	.	.	.	16gg	16g	16gg	.	16gg	16g	.
.	8c	8c	.	16aa	16a	16aa	8c	16aa	16a	8c
.	.	.	.	16ff#	16f#	16ff#	.	16ff#	16f#	.
.	8B-	8B-	.	8gg	8g	8gg	8B-	8gg	8g	8B-
.	8A	8A	.	8ccc	8cc	8ccc	8A	8ccc	8cc	8A
=31	=31	=31	=31	=31	=31	=31	=31	=31	=31	=31
2r	8r	8r	2r	4ccc	4cc	4ccc	8r	4ccc	4cc	8r
.	8E	8E	.	.	.	.	8E	.	.	8E
.	8F	8F	.	8aa	8a	8aa	8F	8aa	8a	8F
.	8A	8A	.	8ff	8f	8ff	8A	8ff	8f	8A
=32	=32	=32	=32	=32	=32	=32	=32	=32	=32	=32
2r	8c	8c	2r	16ee	16e	16ee	8c	16ee	16e	8c
.	.	.	.	16ff	16f	16ff	.	16ff	16f	.
.	8B-	8B-	.	16gg	16g	16gg	8B-	16gg	16g	8B-
.	.	.	.	16ee	16e	16ee	.	16ee	16e	.
.	8A	8A	.	8ff	8f	8ff	8A	8ff	8f	8A
.	8F	8F	.	8ccc	8r	8ccc	8F	8ccc	8r	8F
=33	=33	=33	=33	=33	=33	=33	=33	=33	=33	=33
2r	8D-	8D-	2r	2bb	8r	2bb	8D-	2bb	8r	8r
.	8d-	8d-	.	.	8aa-	.	8d-	.	8aa-	8f
.	8d-	8d-	.	.	8gg	.	8d-	.	8gg	8g
.	8d-	8d-	.	.	8ff	.	8d-	.	8ff	8a-
=34	=34	=34	=34	=34	=34	=34	=34	=34	=34	=34
4dd	8C	8C	4dd	2ccc	16ee	2ccc	8C	2ccc	16ee	4cc
.	.	.	.	.	16ff	.	.	.	16ff	.
.	8c	8c	.	.	16ee	.	8c	.	16ee	.
.	.	.	.	.	16dd	.	.	.	16dd	.
4r	8c	8c	4r	.	8cc	.	8c	.	8cc	4r
.	8c	8c	.	.	8ee	.	8c	.	8ee	.
=35	=35	=35	=35	=35	=35	=35	=35	=35	=35	=35
2r	8D-	8D-	2r	2bb	8ff	2bb	8D-	2bb	8ff	8r
.	8d-	8d-	.	.	8aa-	.	8d-	.	8aa-	8f
.	8d-	8d-	.	.	8gg	.	8d-	.	8gg	8g
.	8d-	8d-	.	.	8ff	.	8d-	.	8ff	8a-
=36	=36	=36	=36	=36	=36	=36	=36	=36	=36	=36
4dd	8C	8C	4dd	2ccc	16ee	2ccc	8C	2ccc	16ee	4cc
.	.	.	.	.	16ff	.	.	.	16ff	.
.	8c	8c	.	.	16ee	.	8c	.	16ee	.
.	.	.	.	.	16dd	.	.	.	16dd	.
4r	8c	8c	4r	.	8cc	.	8c	.	8cc	4r
.	8c	8c	.	.	8ee	.	8c	.	8ee	.
=37	=37	=37	=37	=37	=37	=37	=37	=37	=37	=37
2r	8D-	8D-	2r	2bb	8ff	2bb	8D-	2bb	8ff	8r
.	8d-	8d-	.	.	8aa-	.	8d-	.	8aa-	8f
.	8d-	8d-	.	.	8gg	.	8d-	.	8gg	8g
.	8d-	8d-	.	.	8ff	.	8d-	.	8ff	8a-
=38	=38	=38	=38	=38	=38	=38	=38	=38	=38	=38
4dd	8C	8C	4dd	4ccc	4ee	[2ccc	8C	4.ccc	4ee	4cc
.	8c	8c	.	.	.	.	8c	.	.	.
4r	8C	8C	4r	4r	4r	.	8C	.	4r	4r
.	8r	8r	.	.	.	.	8r	8ccc	.	.
=39	=39	=39	=39	=39	=39	=39	=39	=39	=39	=39
2r	2r	2r	2r	2r	2r	2ccc_	2r	4ccc	8r	2r
.	.	.	.	.	.	.	.	.	8e	.
.	.	.	.	.	.	.	.	8bb-	8e	.
.	.	.	.	.	.	.	.	8gg	8e	.
=40	=40	=40	=40	=40	=40	=40	=40	=40	=40	=40
2r	2r	2r	2r	2r	2r	2ccc_	2r	4ccc	8r	2r
.	.	.	.	.	.	.	.	.	8f	.
.	.	.	.	.	.	.	.	8aa	8f	.
.	.	.	.	.	.	.	.	8ff	8f	.
=41	=41	=41	=41	=41	=41	=41	=41	=41	=41	=41
2r	2r	2r	2r	2r	2r	2ccc_	2r	4ccc	8r	2r
.	.	.	.	.	.	.	.	.	8g	.
.	.	.	.	.	.	.	.	8gg	8g	.
.	.	.	.	.	.	.	.	8ee	8g	.
=42	=42	=42	=42	=42	=42	=42	=42	=42	=42	=42
2r	2r	2r	2r	2r	2r	2ccc_	2r	8ff	4a	2r
.	.	.	.	.	.	.	.	8ff	.	.
.	.	.	.	.	.	.	.	8ff	4r	.
.	.	.	.	.	.	.	.	8ff#	.	.
=43	=43	=43	=43	=43	=43	=43	=43	=43	=43	=43
2r	2r	2r	2r	2r	2r	2ccc_	2r	8gg	4e	2r
.	.	.	.	.	.	.	.	8gg	.	.
.	.	.	.	.	.	.	.	8gg	4r	.
.	.	.	.	.	.	.	.	8gg#	.	.
=44	=44	=44	=44	=44	=44	=44	=44	=44	=44	=44
2r	2r	2r	2r	2r	2r	2ccc_	2r	8aa	4f	2r
.	.	.	.	.	.	.	.	8aa	.	.
.	.	.	.	.	.	.	.	8aa	4r	.
.	.	.	.	.	.	.	.	8ff	.	.
=45	=45	=45	=45	=45	=45	=45	=45	=45	=45	=45
2r	2r	2r	2r	2r	2r	2ccc_	2r	8bb-	4g	2r
.	.	.	.	.	.	.	.	8bb-	.	.
.	.	.	.	.	.	.	.	8bb-	4r	.
.	.	.	.	.	.	.	.	8bb	.	.
=46	=46	=46	=46	=46	=46	=46	=46	=46	=46	=46
2r	[2A	[2A	2r	2r	2r	2ccc]	2r	2ccc	8f	[2A
.	.	.	.	.	.	.	.	.	8f	.
.	.	.	.	.	.	.	.	.	8f	.
.	.	.	.	.	.	.	.	.	8c	.
=47	=47	=47	=47	=47	=47	=47	=47	=47	=47	=47
2r	2A]	2A]	2r	2r	2r	2ccc#	2r	2ccc#	8e-	2A]
.	.	.	.	.	.	.	.	.	8e-	.
.	.	.	.	.	.	.	.	.	8e-	.
.	.	.	.	.	.	.	.	.	8f	.
=48	=48	=48	=48	=48	=48	=48	=48	=48	=48	=48
2r	2B-	2B-	2r	2r	2r	2ddd	2r	2ddd	16d	[2B-
.	.	.	.	.	.	.	.	.	16f#	.
.	.	.	.	.	.	.	.	.	16g	.
.	.	.	.	.	.	.	.	.	16f#	.
.	.	.	.	.	.	.	.	.	16g	.
.	.	.	.	.	.	.	.	.	16f#	.
.	.	.	.	.	.	.	.	.	16g	.
.	.	.	.	.	.	.	.	.	16f#	.
=49	=49	=49	=49	=49	=49	=49	=49	=49	=49	=49
2r	2BB-	2BB-	2r	2r	2r	4bb-	2r	4bb-	4g	2B-]
.	.	.	.	.	.	4gg	.	4gg	4b-	.
=50	=50	=50	=50	=50	=50	=50	=50	=50	=50	=50
2r	8C	8C	2r	2r	2r	2ff	2r	2ff	8a	8c
.	8C	8C	.	.	.	.	.	.	8a	8c
.	8C	8C	.	.	.	.	.	.	8a	8c
.	8C	8C	.	.	.	.	.	.	8a	8c
=51	=51	=51	=51	=51	=51	=51	=51	=51	=51	=51
2r	8C	8C	2r	2r	2r	2gg	2r	2gg	8e	8B-
.	8C	8C	.	.	.	.	.	.	8e	8B-
.	8C	8C	.	.	.	.	.	.	8e	8B-
.	8C	8C	.	.	.	.	.	.	8e	8B-
=52	=52	=52	=52	=52	=52	=52	=52	=52	=52	=52
2g	8AA	8AA	2G	2ff	2cc	4ccc	2F	4ccc	4cc	8A
.	8AA	8AA	.	.	.	.	.	.	.	8f
.	8AA	8AA	.	.	.	8aa	.	8aa	8a	8f
.	8AA	8AA	.	.	.	8ff	.	8ff	8f	8f
=53	=53	=53	=53	=53	=53	=53	=53	=53	=53	=53
2g	8AA	8AA	2G	2ee-	2cc	4ee-	2F	4ee-	4e-	8A
.	8AA	8AA	.	.	.	.	.	.	.	8A
.	8AA	8AA	.	.	.	8cc	.	8cc	8c	8A
.	8AA	8AA	.	.	.	8a	.	8a	8A	8A
=54	=54	=54	=54	=54	=54	=54	=54	=54	=54	=54
4g	8BB-	8BB-	4G	4dd	4dd	8b-	8BB-	16b-	16B-	8B-
.	.	.	.	.	.	.	.	16b-	16B-	.
.	8C#	8C#	.	.	.	8cc#	8C#	16cc#	16c#	8c#
.	.	.	.	.	.	.	.	16cc#	16c#	.
4r	8D	8D	4r	4r	4r	8dd	8D	16dd	16d	8d
.	.	.	.	.	.	.	.	16dd	16d	.
.	8F#	8F#	.	.	.	8ff#	8F#	16ff#	16f#	8f#
.	.	.	.	.	.	.	.	16ff#	16f#	.
=55	=55	=55	=55	=55	=55	=55	=55	=55	=55	=55
2r	8G	8G	2r	2r	2r	8gg	8G	16gg	16g	8g
.	.	.	.	.	.	.	.	16gg	16g	.
.	8A	8A	.	.	.	8aa	8A	16aa	16a	8a
.	.	.	.	.	.	.	.	16aa	16a	.
.	8B-	8B-	.	.	.	8bb-	8B-	16bb-	16b-	8b-
.	.	.	.	.	.	.	.	16bb-	16b-	.
.	8c	8c	.	.	.	8ccc	8c	16ccc	16cc	8cc
.	.	.	.	.	.	.	.	16ccc	16cc	.
=56	=56	=56	=56	=56	=56	=56	=56	=56	=56	=56
2r	8d	8d	2r	2r	2r	8ddd	8d	16ddd	16dd	8dd
.	.	.	.	.	.	.	.	16ddd	16dd	.
.	8e	8e	.	.	.	8eee	8e	16eee	16ee	8ee
.	.	.	.	.	.	.	.	16eee	16ee	.
.	8f	8f	.	.	.	8fff	8f	16fff	16ff	8ff
.	.	.	.	.	.	.	.	16fff	16ff	.
.	8B	8B	.	.	.	8bb	8B	16bb	16b	8b
.	.	.	.	.	.	.	.	16bb	16b	.
=57	=57	=57	=57	=57	=57	=57	=57	=57	=57	=57
2r	8c	8c	2r	4.r	4.r	8ccc	8c	16ccc	16cc	8cc
.	.	.	.	.	.	.	.	16ccc	16cc	.
.	8d	8d	.	.	.	8ddd	8d	16ddd	16dd	8dd
.	.	.	.	.	.	.	.	16ddd	16dd	.
.	8e-	8e-	.	.	.	8eee-	8e-	16eee-	16ee-	8ee-
.	.	.	.	.	.	.	.	16eee-	16ee-	.
.	8A	8A	.	8aa	8a	8aa	8A	16aa	16a	8a
.	.	.	.	.	.	.	.	16aa	16a	.
=58	=58	=58	=58	=58	=58	=58	=58	=58	=58	=58
2r	8B-	8B-	2r	8bb-	8b-	8bb-	8B-	16bb-	16b-	8b-
.	.	.	.	.	.	.	.	16bb-	16b-	.
.	8c#	8c#	.	8ccc#	8cc#	8ccc#	8c#	16ccc#	16cc#	8cc#
.	.	.	.	.	.	.	.	16ccc#	16cc#	.
.	8d	8d	.	8ddd	8dd	8ddd	8d	16ddd	16dd	8dd
.	.	.	.	.	.	.	.	16ddd	16dd	.
.	8c#	8c#	.	8ccc#	8cc#	8ccc#	8c#	16ccc#	16cc#	8cc#
.	.	.	.	.	.	.	.	16ccc#	16cc#	.
=59	=59	=59	=59	=59	=59	=59	=59	=59	=59	=59
2r	8d	8d	2r	8ddd	8dd	8ddd	8d	16ddd	16dd	8dd
.	.	.	.	.	.	.	.	16ddd	16dd	.
.	8c#	8c#	.	8ccc#	8cc#	8ccc#	8c#	16ccc#	16cc#	8cc#
.	.	.	.	.	.	.	.	16ccc#	16cc#	.
.	8d	8d	.	8ddd	8dd	8ddd	8d	16ddd	16dd	8dd
.	.	.	.	.	.	.	.	16ddd	16dd	.
.	8B-	8B-	.	8bb-	8gg	8bb-	8B-	16bb-	16gg	8b-
.	.	.	.	.	.	.	.	16bb-	16gg	.
=60	=60	=60	=60	=60	=60	=60	=60	=60	=60	=60
2r	8c	8c	2r	8aa	8ff	8aa	8c	16aa	16ff	8cc
.	.	.	.	.	.	.	.	16aa	16ff	.
.	8c	8c	.	8ff	8a	8ff	8c	16ff	16a	8cc
.	.	.	.	.	.	.	.	16ff	16a	.
.	8c	8c	.	8aa	8ff	8aa	8c	16aa	16ff	8cc
.	.	.	.	.	.	.	.	16aa	16ff	.
.	8c	8c	.	8ccc	8aa	8ccc	8c	16ccc	16aa	8cc
.	.	.	.	.	.	.	.	16ccc	16aa	.
=61	=61	=61	=61	=61	=61	=61	=61	=61	=61	=61
2r	8C	8C	2r	8ccc	8aa	8ccc	8C	16ccc	16aa	8c
.	.	.	.	.	.	.	.	16ccc	16aa	.
.	8C	8C	.	8bb-	8gg	8bb-	8C	16bb-	16gg	8c
.	.	.	.	.	.	.	.	16bb-	16gg	.
.	8C	8C	.	8aa	8ff	8aa	8C	16aa	16ff	8c
.	.	.	.	.	.	.	.	16aa	16ff	.
.	8C	8C	.	8gg	8ee	8gg	8C	16gg	16ee	8c
.	.	.	.	.	.	.	.	16gg	16ee	.
=62	=62	=62	=62	=62	=62	=62	=62	=62	=62	=62
[2g	4F	4F	[2G	4ccc	4ff	4ff	4F	4ff	4ff	4f
.	4r	4r	.	8aa	4r	4r	4r	8r	4r	4r
.	.	.	.	8ff	.	.	.	8cc	.	.
=63	=63	=63	=63	=63	=63	=63	=63	=63	=63	=63
2g_	4F	4F	2G_	4ee	2r	2r	2r	4cc	2B- 2e	2G
.	4r	4r	.	8r	.	.	.	8b-	.	.
.	.	.	.	8ccc	.	.	.	8g	.	.
=64	=64	=64	=64	=64	=64	=64	=64	=64	=64	=64
2g_	4F	4F	2G_	4ccc	2r	2r	2r	4f	4f 4A	4A
.	4r	4r	.	8aa	.	.	.	8r	4r	4r
.	.	.	.	8ff	.	.	.	8cc	.	.
=65	=65	=65	=65	=65	=65	=65	=65	=65	=65	=65
2g_	4F	4F	2G_	4ee	2r	2r	2r	4cc	2B- 2e	2G
.	4r	4r	.	8r	.	.	.	8b-	.	.
.	.	.	.	8ccc	.	.	.	8g	.	.
=66	=66	=66	=66	=66	=66	=66	=66	=66	=66	=66
2g_	4F	4F	2G_	4ccc	2r	2r	2r	4f	4A 4f	4A
.	4r	4r	.	8aa	.	.	.	8r	4r	4r
.	.	.	.	8ff	.	.	.	8cc	.	.
=67	=67	=67	=67	=67	=67	=67	=67	=67	=67	=67
2g_	4F	4F	2G_	2ee	2r	2r	2r	4cc	2B- 2e	2G
.	4r	4r	.	.	.	.	.	8b-	.	.
.	.	.	.	.	.	.	.	8g	.	.
=68	=68	=68	=68	=68	=68	=68	=68	=68	=68	=68
4g]	4F	4F	4G]	8ff	2r	2r	8F	8f	8f 8A	4A
.	.	.	.	4.r	.	.	8G	8g	8g	.
4r	4r	4r	4r	.	.	.	8A	8a	8a	4r
.	.	.	.	.	.	.	8B-	8b-	8b-	.
=69	=69	=69	=69	=69	=69	=69	=69	=69	=69	=69
2r	2r	2r	2r	2r	2r	2r	8c	8cc	8cc	2r
.	.	.	.	.	.	.	8d	8dd	8dd	.
.	.	.	.	.	.	.	8e-	8ee-	8ee-	.
.	.	.	.	.	.	.	8e	8ee	8ee	.
=70	=70	=70	=70	=70	=70	=70	=70	=70	=70	=70
2r	8r	8r	2r	2r	2r	2r	4f	4ff	4ff	8r
.	8A	8A	.	.	.	.	.	.	.	8A
.	8B-	8B-	.	.	.	.	8d	8dd	8dd	8B-
.	8d	8d	.	.	.	.	8B-	8b-	8b-	8d
=71	=71	=71	=71	=71	=71	=71	=71	=71	=71	=71
2r	4.f	4.f	2r	2r	2r	2r	8A	8a	8a	[2f
.	.	.	.	.	.	.	8c	8cc	8cc	.
.	.	.	.	.	.	.	8F	8f	8f	.
.	8e-	8e-	.	.	.	.	8A	8a	8a	.
=72	=72	=72	=72	=72	=72	=72	=72	=72	=72	=72
2r	8d	8d	2r	2r	2r	2r	8B-	8b-	8b-	4.f]
.	8A	8A	.	.	.	.	8c	8cc	8cc	.
.	8B-	8B-	.	.	.	.	8d	8dd	8dd	.
.	8E-	8E-	.	.	.	.	8e-	8ee-	8cc	8g
=73	=73	=73	=73	=73	=73	=73	=73	=73	=73	=73
2r	8F	8F	2r	2r	2r	2r	4d	4dd	4b-	4f
.	8FF	8FF	.	.	.	.	.	.	.	.
.	8FF	8FF	.	.	.	.	8c	8cc	8a	4r
.	8r	8r	.	.	.	.	8f	8ff	8ff	.
=74	=74	=74	=74	=74	=74	=74	=74	=74	=74	=74
2r	8r	8r	2r	2r	2r	2r	4f	4ff	4ff	8r
.	8A	8A	.	.	.	.	.	.	.	8c
.	8B-	8B-	.	.	.	.	8d	8dd	8dd	8d
.	8d	8d	.	.	.	.	8B-	8b-	8b-	8d
=75	=75	=75	=75	=75	=75	=75	=75	=75	=75	=75
2r	8r	8r	2r	2r	2r	2r	4g	4gg	4gg	8r
.	8B	8B	.	.	.	.	.	.	.	8d
.	8c	8c	.	.	.	.	8e-	8ee-	8ee-	8e-
.	8e-	8e-	.	.	.	.	8c	8cc	8cc	8e-
=76	=76	=76	=76	=76	=76	=76	=76	=76	=76	=76
2r	2F	2F	2r	2r	2r	2r	8B-	8b-	8b-	8d
.	.	.	.	.	.	.	8B-	8b-	8b-	8d
.	.	.	.	.	.	.	8c	8cc	8cc	8e-
.	.	.	.	.	.	.	16B-	16b-	16b-	16d
.	.	.	.	.	.	.	16A	16a	16a	16c
=77	=77	=77	=77	=77	=77	=77	=77	=77	=77	=77
2r	8B-	8B-	2r	2r	2r	2r	4B-	4b-	4b-	4B-
.	8F	8F	.	.	.	.	.	.	.	.
.	8BB-	8BB-	.	.	.	.	4r	8r	4r	4r
.	8r	8r	.	.	.	.	.	8bb-	.	.
=78	=78	=78	=78	=78	=78	=78	=78	=78	=78	=78
2r	8r	8r	2r	2r	2r	2r	2r	4bb-	8r	8r
.	8d	8d	.	.	.	.	.	.	8f	8d
.	8c	8c	.	.	.	.	.	8aa	8e-	8c
.	8r	8r	.	.	.	.	.	8ccc	8r	8r
=79	=79	=79	=79	=79	=79	=79	=79	=79	=79	=79
2r	8r	8r	2r	2r	2r	2r	2r	4ee-	8r	8r
.	8A	8A	.	.	.	.	.	.	8c	8f
.	8B-	8B-	.	.	.	.	.	8dd	8B-	8f
.	8r	8r	.	.	.	.	.	8gg	8b-	8r
=80	=80	=80	=80	=80	=80	=80	=80	=80	=80	=80
2r	8r	8r	2r	2r	2r	2r	2r	8.gg	8.b-	8r
.	8B-	8B-	.	.	.	.	.	.	.	8d
.	.	.	.	.	.	.	.	32aa	32cc	.
.	.	.	.	.	.	.	.	32gg	32b-	.
.	8c	8c	.	.	.	.	.	8ff	8a	8c
.	8C	8C	.	.	.	.	.	8ee	8g	8B-
=81	=81	=81	=81	=81	=81	=81	=81	=81	=81	=81
2r	8FF	8FF	2r	2r	2r	2r	2r	4ee	4g	4B-
.	8F	8F	.	.	.	.	.	.	.	.
.	8F	8F	.	.	.	.	.	8ff	8a	8A
.	8F	8F	.	.	.	.	.	8dd	8b	8r
=82	=82	=82	=82	=82	=82	=82	=82	=82	=82	=82
2r	8FF	8FF	2r	2r	2r	2r	2r	4dd	4b	8F
.	8F	8F	.	.	.	.	.	.	.	8f
.	8F	8F	.	.	.	.	.	8ee-	8cc	8f
.	8F	8F	.	.	.	.	.	8cc	8a	8f
=83	=83	=83	=83	=83	=83	=83	=83	=83	=83	=83
2r	8FF	8FF	2r	2r	2r	2r	2r	4cc	4a	8F
.	8F	8F	.	.	.	.	.	.	.	8f
.	8F	8F	.	.	.	.	.	8dd	8b-	8f
.	8F	8F	.	.	.	.	.	8b-	8g	8f
=84	=84	=84	=84	=84	=84	=84	=84	=84	=84	=84
2r	8FF	8FF	2r	2r	2r	2r	2r	8a	8f	8F
.	8F	8F	.	.	.	.	.	8a	8f	8F
.	8F	8F	.	.	.	.	.	8g	8e	8F
.	8F	8F	.	.	.	.	.	16f	16d	8F
.	.	.	.	.	.	.	.	16g	16e	.
=85	=85	=85	=85	=85	=85	=85	=85	=85	=85	=85
4.r	8FF	8FF	4.r	4.r	4.r	4.r	4.r	4f	4f	8F
.	8F	8F	.	.	.	.	.	.	.	8f
.	8F	8F	.	.	.	.	.	4r	4r	8F
8g	8f	8f	8G	8ff	8ff	8ff	8f	.	.	8f
=86	=86	=86	=86	=86	=86	=86	=86	=86	=86	=86
[2g	4f	4f	[2G	8ff	8ff	[2ff	4f	8r	8r	4f
.	.	.	.	8aa	8cc	.	.	8aa	8cc	.
.	8d	8d	.	8bb-	8dd	.	8d	8bb-	8dd	8d
.	8B-	8B-	.	8ddd	8ff	.	8B-	8ddd	8ff	8B-
=87	=87	=87	=87	=87	=87	=87	=87	=87	=87	=87
4g]	8A	8A	4G]	8ccc	4ff	4.ff]	8A	4ccc	4ff	8A
.	8c	8c	.	8aa	.	.	8c	.	.	8c
8r	8F	8F	8r	8ff	8r	.	8F	4r	4r	8F
8ee	8d	8d	8e	8dd	8dd	8ddd	8d	.	.	8dd
=88	=88	=88	=88	=88	=88	=88	=88	=88	=88	=88
[2ee	4d	4d	[2e	8dd	8dd	8ddd	4d	8r	8r	4dd
.	.	.	.	8ff#	8a	8ff#	.	8ff#	8a	.
.	4r	4r	.	8gg	8b-	8gg	8B-	8gg	8b-	4r
.	.	.	.	8bb-	8dd	8bb-	8G	8bb-	8bb-	.
=89	=89	=89	=89	=89	=89	=89	=89	=89	=89	=89
4ee]	8F#	8F#	4e]	8aa	4dd	4.ddd	8F#	4ddd	4aa	8f#
.	8A	8A	.	8ff#	.	.	8A	.	.	8a
8r	8D	8D	8r	8dd	8r	.	8D	4r	4r	8d
8cc	8B-	8B-	8c	8b-	8b-	8bb-	8B-	.	.	8b-
=90	=90	=90	=90	=90	=90	=90	=90	=90	=90	=90
[2cc	4B-	4B-	[2c	8b-	8b-	8bb-	4B-	8r	8r	4b-
.	.	.	.	8dd	8f	8dd	.	8dd	8f	.
.	8G	8G	.	8ee-	8g	8ee-	8G	8ee-	8g	8g
.	8E-	8E-	.	8gg	8b-	8gg	8E-	8gg	8gg	8e-
=91	=91	=91	=91	=91	=91	=91	=91	=91	=91	=91
2cc_	8D	8D	2c_	8ff	4b-	4bb-	8D	4bb-	4ff	8d
.	8F	8F	.	8dd	.	.	8F	.	.	8f
.	8BB-	8BB-	.	8b-	4r	4r	8BB-	8r	8r	8B-
.	8r	8r	.	8r	.	.	8r	8bb-	8bb-	8r
=92	=92	=92	=92	=92	=92	=92	=92	=92	=92	=92
2cc_	8r	8r	2c_	2r	2r	2r	2r	4bb-	4bb-	8r
.	8D	8D	.	.	.	.	.	.	.	8d
.	8E-	8E-	.	.	.	.	.	8gg	8gg	8e-
.	8G	8G	.	.	.	.	.	8ee-	8ee-	8g
=93	=93	=93	=93	=93	=93	=93	=93	=93	=93	=93
4cc]	4.B-	4.B-	4c]	2r	2r	2r	2r	8dd	8dd	4.b-
.	.	.	.	.	.	.	.	8ff	8ff	.
4r	.	.	4r	.	.	.	.	8b-	8b-	.
.	8A-	8A-	.	.	.	.	.	8dd	8dd	8a-
=94	=94	=94	=94	=94	=94	=94	=94	=94	=94	=94
2r	8G	8G	2r	4.b-	4.b-	2r	4.B-	8ee-	8ee-	8g
.	8F	8F	.	.	.	.	.	8ff	8ff	4B-
.	8E-	8E-	.	.	.	.	.	8gg	8gg	.
.	8D	8D	.	8b	8b	.	8B	8ff	8ff	8B
=95	=95	=95	=95	=95	=95	=95	=95	=95	=95	=95
2r	4.C	4.C	2r	[2cc	[2cc	2r	[2c	8ee	8ee	[2c
.	.	.	.	.	.	.	.	8gg	8gg	.
.	.	.	.	.	.	.	.	8cc	8cc	.
.	8B-	8B-	.	.	.	.	.	8ee	8ee	.
=96	=96	=96	=96	=96	=96	=96	=96	=96	=96	=96
2r	8A-	8A-	2r	4.cc]	4.cc]	2r	4.c]	8ff	8ff	4.c]
.	8G	8G	.	.	.	.	.	8gg	8gg	.
.	8F	8F	.	.	.	.	.	8aa-	8aa-	.
.	8E-	8E-	.	8cc#	8cc#	.	8c#	8gg	8gg	8c#
=97	=97	=97	=97	=97	=97	=97	=97	=97	=97	=97
2r	4.D	4.D	2r	2dd	2dd	2r	2d	8ff#	8ff#	2d
.	.	.	.	.	.	.	.	8aa	8aa	.
.	.	.	.	.	.	.	.	8dd	8dd	.
.	8F#	8F#	.	.	.	.	.	8aa	8aa	.
=98	=98	=98	=98	=98	=98	=98	=98	=98	=98	=98
2r	8G	8G	2r	[2dd	[2b-	[2bb-	[2G	4bb-	4bb-	8d
.	8G	8G	.	.	.	.	.	.	.	8d
.	8G	8G	.	.	.	.	.	8gg	8gg	8d
.	8G	8G	.	.	.	.	.	8dd	8dd	8d
=99	=99	=99	=99	=99	=99	=99	=99	=99	=99	=99
2r	8G	8G	2r	2dd]	2b-]	2bb-]	2G]	4b-	4b-	8d
.	8G	8G	.	.	.	.	.	.	.	8d
.	8G	8G	.	.	.	.	.	8g	8g	8d
.	8G	8G	.	.	.	.	.	8d	8d	8d
=100	=100	=100	=100	=100	=100	=100	=100	=100	=100	=100
2r	4A	4A	2r	4cc#	4e	4ee	4A	8c#	4e 4c#	4A
.	.	.	.	.	.	.	.	8e	.	.
.	4A	4A	.	4cc#	4e	4ee	4A	8A	4e 4c#	4A
.	.	.	.	.	.	.	.	8c#	.	.
=101	=101	=101	=101	=101	=101	=101	=101	=101	=101	=101
2r	4r	4r	2r	4r	4r	4r	4r	8d	4r	4r
.	.	.	.	.	.	.	.	8f	.	.
.	4F	4F	.	4dd	4a	4ff	4F	8A	4d 4A	4d
.	.	.	.	.	.	.	.	8f	.	.
=102	=102	=102	=102	=102	=102	=102	=102	=102	=102	=102
2r	4r	4r	2r	4r	4r	4r	4r	8e	4r	4r
.	.	.	.	.	.	.	.	8g	.	.
.	4C#	4C#	.	4ee	4a	4gg	4C#	8A	4e 4A	4A 4a
.	.	.	.	.	.	.	.	8g	.	.
=103	=103	=103	=103	=103	=103	=103	=103	=103	=103	=103
2r	4D	4D	2r	4ff	4a	4ff	4D	4f	4f 4A	4f 4A
.	[4c	[4c	.	[4ff#	[4ee-	[4aa	[4c	[4f# 4A	[4e- 4A	[4f# 4A
=104	=104	=104	=104	=104	=104	=104	=104	=104	=104	=104
2r	4c]	4c]	2r	4ff#]	4ee-]	4aa]	4c]	4f# 4A]	4e- 4A]	4f# 4A]
.	4r	4r	.	4r	4r	4r	4r	8r	4r	4r
.	.	.	.	.	.	.	.	8f#	.	.
=105	=105	=105	=105	=105	=105	=105	=105	=105	=105	=105
2r	4r	4r	2r	4r	4r	4r	4r	8g	4r	4r
.	.	.	.	.	.	.	.	8b-	.	.
.	4B-	4B-	.	4gg	4dd	4gg	4B-	8d	4a 4d	4g
.	.	.	.	.	.	.	.	8b-	.	.
=106	=106	=106	=106	=106	=106	=106	=106	=106	=106	=106
2r	4r	4r	2r	4r	4r	4r	4r	8a	4r	4r
.	.	.	.	.	.	.	.	8cc	.	.
.	4F#	4F#	.	4aa	4dd	4ccc	4F#	8d	4a 4d	4a 4d
.	.	.	.	.	.	.	.	8cc	.	.
=107	=107	=107	=107	=107	=107	=107	=107	=107	=107	=107
2r	4G	4G	2r	4bb-	4dd	4bb-	4G	4b-	4b- 4d	4b- 4d
.	[4F	[4F	.	[4bb	[4aa-	[4bb	[4F	[4b 4d	[4a- 4A-	[4b 4d
=108	=108	=108	=108	=108	=108	=108	=108	=108	=108	=108
2r	4F]	4F]	2r	4bb]	4aa-]	4bb]	4F]	4b 4d]	4a- 4A-]	4b 4d]
.	8r	8r	.	8r	8r	8r	8r	8r	8r	8r
.	8F	8F	.	8bb	8aa-	8bb	8F	8b	8d	8b
=109	=109	=109	=109	=109	=109	=109	=109	=109	=109	=109
2r	4E-	4E-	2r	4ccc	4gg	4ccc	4E-	4cc	4e-	4cc
.	4BB	4BB	.	4ff	4gg	4ddd	4BB	4dd 4g	4dd 4g	4g
=110	=110	=110	=110	=110	=110	=110	=110	=110	=110	=110
2r	4r	4r	2r	4r	4r	4r	4r	4r	4r	4r
.	4C	4C	.	4ee-	4gg	4eee-	4C	4ee- 4g	4ee- 4g	4c
=111	=111	=111	=111	=111	=111	=111	=111	=111	=111	=111
2r	4r	4r	2r	4r	4r	4r	4r	4r	4r	4r
.	[4B-	[4B-	.	[4ee	[4dd-	[4gg	[4B-	[4dd- 4ee	[4g 4G	[4e
=112	=112	=112	=112	=112	=112	=112	=112	=112	=112	=112
2r	4B-]	4B-]	2r	4ee]	4dd-]	4gg]	4B-]	4dd- 4ee]	4g 4G]	4e]
.	4r	4r	.	4r	4r	4r	4r	8r	4r	4r
.	.	.	.	.	.	.	.	8ee-	.	.
=113	=113	=113	=113	=113	=113	=113	=113	=113	=113	=113
2r	4r	4r	2r	4r	4r	4r	4r	8ff	4r	4r
.	.	.	.	.	.	.	.	8aa-	.	.
.	4A-	4A-	.	4ff	4cc	4ff	4A-	8cc	4cc 4ff	4f
.	.	.	.	.	.	.	.	8aa-	.	.
=114	=114	=114	=114	=114	=114	=114	=114	=114	=114	=114
2r	4r	4r	2r	4r	4r	4r	4r	8gg	4r	4r
.	.	.	.	.	.	.	.	8bb-	.	.
.	4E	4E	.	8gg	8cc	8gg	4E	8cc	8gg 8cc	4e
.	.	.	.	8ccc	8ccc	8ccc	.	8ccc	8ccc	.
=115	=115	=115	=115	=115	=115	=115	=115	=115	=115	=115
[2dd	8r	8r	[2dd	4ccc	4ccc	4ccc	8r	4ccc	4ccc	8r
.	8E	8E	.	.	.	.	8E	.	.	8e
.	8F	8F	.	8aa-	8aa-	8aa-	8F	8aa-	8aa-	8f
.	8A-	8A-	.	8ff	8ff	8ff	8A-	8ff	8ff	8a-
=116	=116	=116	=116	=116	=116	=116	=116	=116	=116	=116
2dd_	4.c	4.c	2dd_	8ee	8ee	8ee	4.c	8ee	8ee	4.g
.	.	.	.	8gg	8gg	8gg	.	8gg	8gg	.
.	.	.	.	8cc	8cc	8cc	.	8cc	8cc	.
.	8B-	8B-	.	8r	8r	8r	8B-	8ee	8ee	8b-
=117	=117	=117	=117	=117	=117	=117	=117	=117	=117	=117
2dd_	8A-	8A-	2dd_	2r	2r	2r	8A-	8ff	8ff	8a-
.	8c	8c	.	.	.	.	8c	8cc	8cc	8cc
.	8A-	8A-	.	.	.	.	8A-	8ff	8ff	8a-
.	8F	8F	.	.	.	.	8F	8aa-	8aa-	8f
=118	=118	=118	=118	=118	=118	=118	=118	=118	=118	=118
2dd_	8E	8E	2dd_	4.r	4.r	4.r	8E	8ccc	8bb-	8e
.	8G	8G	.	.	.	.	8G	4ccc	4bb-	8g
.	8C	8C	.	.	.	.	8C	.	.	8c
.	8E	8E	.	8ee	8ee	8ee	8E	8ccc	8bb-	8e
=119	=119	=119	=119	=119	=119	=119	=119	=119	=119	=119
4dd]	8F	8F	4dd]	8ff	8ff	8ff	8F	8ccc	8aa-	8f
.	8c	8c	.	8ccc	8ccc	8ccc	8c	4ccc	4aa-	8cc
4r	8A-	8A-	4r	8aa-	8aa-	8aa-	8A-	.	.	8a-
.	8F	8F	.	8ff	8ff	8ff	8F	8ccc	[8aa-	8f
=120	=120	=120	=120	=120	=120	=120	=120	=120	=120	=120
2r	8D	8D	2r	8dd	8dd	8dd	8D	8bb-	8aa-]	8d
.	8F	8F	.	8ff	8ff	8ff	8F	4bb-	4aa-	8f
.	8BB-	8BB-	.	8b-	8b-	8b-	8BB-	.	.	8B-
.	8D	8D	.	8dd	8dd	8dd	8D	8bb-	8aa-	8d
=121	=121	=121	=121	=121	=121	=121	=121	=121	=121	=121
2r	8E-	8E-	2r	8ee-	8ee-	8ee-	8E-	8bb-	8gg	8e-
.	8B-	8B-	.	8bb-	8bb-	8bb-	8B-	4bb-	4gg	8b-
.	8G	8G	.	8gg	8gg	8gg	8G	.	.	8g
.	8E-	8E-	.	8ee-	8ee-	8ee-	8E-	8bb-	[8gg	8e-
=122	=122	=122	=122	=122	=122	=122	=122	=122	=122	=122
2r	8C	8C	2r	8cc	8cc	8cc	8C	8aa-	8gg]	8c
.	8E-	8E-	.	8ee-	8ee-	8ee-	8E-	4aa-	4gg	8e-
.	8AA-	8AA-	.	8a-	8a-	8a-	8AA-	.	.	8A-
.	8C	8C	.	8cc	8cc	8cc	8C	8aa-	8gg	8c
=123	=123	=123	=123	=123	=123	=123	=123	=123	=123	=123
2r	8D	8D	2r	8dd	8dd	8dd	8D	8aa-	8ff	8d
.	8A-	8A-	.	8aa-	8aa-	8aa-	8A-	4aa-	4ff	8a-
.	8F	8F	.	8ff	8ff	8ff	8F	.	.	8f
.	8D	8D	.	8dd	8dd	8dd	8D	8aa-	[8ff	8d
=124	=124	=124	=124	=124	=124	=124	=124	=124	=124	=124
2r	8BB	8BB	2r	8b	8b	8b	8BB	8gg	8ff]	8B
.	8D	8D	.	8dd	8dd	8dd	8D	4gg	4ff	8d
.	8GG	8GG	.	8g	8g	8g	8GG	.	.	8G
.	8BB	8BB	.	8ff	8ff	8ff	8BB	8ff	8ff	8B
=125	=125	=125	=125	=125	=125	=125	=125	=125	=125	=125
2r	4C	4C	2r	4ee-	4ee-	4ee-	4C	8ee-	4ee-	4c
.	.	.	.	.	.	.	.	8gg	.	.
.	8r	8r	.	8r	8r	8r	8r	8g	8r	8r
.	8D	8D	.	8b	8f	8b	8D	8b	8f	8d
=126	=126	=126	=126	=126	=126	=126	=126	=126	=126	=126
2r	4E-	4E-	2r	4cc	4g	4cc	4E-	8cc	4g	4e-
.	.	.	.	.	.	.	.	8ee-	.	.
.	8r	8r	.	8r	8r	8r	8r	8g	8r	8r
.	8D	8D	.	8b	8f	8bb	8D	8b	8f	8d
=127	=127	=127	=127	=127	=127	=127	=127	=127	=127	=127
2r	4E-	4E-	2r	4cc	4g	4ccc	4E-	8cc	4g	4e-
.	.	.	.	.	.	.	.	8ee-	.	.
.	8r	8r	.	8r	8r	8r	8r	8g	8r	8r
.	8D	8D	.	8b	8f	8bb	8D	8b	8f	8d
=128	=128	=128	=128	=128	=128	=128	=128	=128	=128	=128
2r	4E-	4E-	2r	4cc	4g	4ccc	4E-	4cc	4g	4e-
.	[4e-	[4e-	.	[4gg	[4cc#	[4bb-	[4e-	[4cc#	[4b- 4g	[4g
=129	=129	=129	=129	=129	=129	=129	=129	=129	=129	=129
2r	4e-]	4e-]	2r	4gg]	4cc#]	4bb-]	4e-]	4cc#]	4b- 4g]	4g]
.	8r	8r	.	8r	8r	8r	8r	8r	8r	8r
.	8E-	8E-	.	8gg	8cc#	8gg	8E-	8cc#	8gg	8e-
=130	=130	=130	=130	=130	=130	=130	=130	=130	=130	=130
4ee	8D	8D	4e	4ff#	4dd	4ff#	8D	8dd	8ff#	8d
.	8d	8d	.	.	.	.	8d	8ddd	8ddd	8dd
4r	8D	8D	4r	8r	8r	8r	8D	8dd	8dd	8d
.	8E-	8E-	.	8ee-	8ee-	8ee-	8E-	8ee-	8ee-	8e-
=131	=131	=131	=131	=131	=131	=131	=131	=131	=131	=131
4ee	8D	8D	4e	4dd	4dd	4dd	8D	8dd	8dd	8d
.	8d	8d	.	.	.	.	8d	8ddd	8ddd	8dd
4r	8D	8D	4r	8r	8r	8r	8D	8dd	8dd	8d
.	8B-	8B-	.	8bb-	8bb-	8bb-	8B-	8bb-	8bb-	8b-
=132	=132	=132	=132	=132	=132	=132	=132	=132	=132	=132
4ee	8A	8A	4e	4aa	4aa	4aa	8A	8aa	8aa	8a
.	8d	8d	.	.	.	.	8d	8ddd	8ddd	8dd
4r	8D	8D	4r	8r	8r	8r	8D	8dd	8dd	8d
.	8G	8G	.	8gg	8gg	8gg	8G	8gg	8gg	8g
=133	=133	=133	=133	=133	=133	=133	=133	=133	=133	=133
4ee	8F#	8F#	4e	4ff#	4ff#	4ff#	8F#	8ff#	8ff#	8f#
.	8d	8d	.	.	.	.	8d	8ddd	8ddd	8dd
4r	8D	8D	4r	8r	8r	8r	8D	8dd	8dd	8d
.	8E-	8E-	.	8ee-	8ee-	8ee-	8E-	8ee-	8ee-	8e-
=134	=134	=134	=134	=134	=134	=134	=134	=134	=134	=134
4ee	8D	8D	4e	8dd	8dd	8dd	8D	8dd	8dd	8d
.	8d	8d	.	8ddd	8ddd	8ddd	8d	8ddd	8ddd	8dd
4r	8D	8D	4r	8dd	8dd	8dd	8D	8dd	8dd	8d
.	8d	8d	.	8ddd	8ddd	8ddd	8d	8ddd	8ddd	8dd
=135	=135	=135	=135	=135	=135	=135	=135	=135	=135	=135
4ee	8D	8D	4e	8dd	8dd	8dd	8D	8dd	8dd	8d
.	8d	8d	.	8ddd	8ddd	8ddd	8d	8ddd	8ddd	8dd
4r	8D	8D	4r	8dd	8dd	8dd	8D	8dd	8dd	8d
.	8d	8d	.	8ddd	8ddd	8ddd	8d	8ddd	8ddd	8dd
=136	=136	=136	=136	=136	=136	=136	=136	=136	=136	=136
[2ee	8D	8D	[2e	[2ddd	[2dd	4ddd	8D	4ddd	4ddd	8d
.	8F#	8F#	.	.	.	.	8F#	.	.	8f#
.	8G	8G	.	.	.	8bb-	8G	8bb-	8bb-	8g
.	8B-	8B-	.	.	.	8gg	8B-	8gg	8gg	8b-
=137	=137	=137	=137	=137	=137	=137	=137	=137	=137	=137
2ee_	4.d	4.d	2e_	2ddd_	2dd_	8ff#	4.d	8ff#	8ff#	4.dd
.	.	.	.	.	.	8aa	.	8aa	8aa	.
.	.	.	.	.	.	8dd	.	8dd	8dd	.
.	8c	8c	.	.	.	8ff#	8c	8ff#	8ff#	8cc
=138	=138	=138	=138	=138	=138	=138	=138	=138	=138	=138
4ee]	8B-	8B-	4e]	4ddd]	4dd]	4gg	8B-	4gg	4gg	8b-
.	8d	8d	.	.	.	.	8d	.	.	8dd
4r	8G	8G	4r	4r	4r	4r	8G	8r	8r	8g
.	8g	8r	.	.	.	.	8r	8bb-	8cc#	8g
=139	=139	=139	=139	=139	=139	=139	=139	=139	=139	=139
2r	8f#	2r	2r	2r	2r	2r	2r	4aa	4dd	8f#
.	8a	.	.	.	.	.	.	.	.	8a
.	8d	.	.	.	.	.	.	8r	8r	8d
.	8f	.	.	.	.	.	.	8aa-	8b	8f
=140	=140	=140	=140	=140	=140	=140	=140	=140	=140	=140
2r	8e	2r	2r	2r	2r	2r	2r	4gg	4cc	8e
.	8g	.	.	.	.	.	.	.	.	8g
.	8c	.	.	.	.	.	.	8r	8r	8c
.	8e-	.	.	.	.	.	.	8gg-	8a	8e-
=141	=141	=141	=141	=141	=141	=141	=141	=141	=141	=141
2r	8d	4.r	2r	2r	2r	2r	2r	4ff	4b-	8d
.	8f	.	.	.	.	.	.	.	.	8f
.	8B-	.	.	.	.	.	.	8r	8r	8d
.	8B-	8B-	.	.	.	.	.	8ff	8dd	8b-
=142	=142	=142	=142	=142	=142	=142	=142	=142	=142	=142
2r	4G	4G	2r	4ee	4b-	4bb-	4G	8ee	4b-	4g
.	.	.	.	.	.	.	.	8bb-	.	.
.	4r	4r	.	4r	4r	4r	4r	8b-	4r	4r
.	.	.	.	.	.	.	.	8ff	.	.
=143	=143	=143	=143	=143	=143	=143	=143	=143	=143	=143
2r	4G	4G	2r	4ee	4b-	4bb-	4G	8ee	4b-	4g
.	.	.	.	.	.	.	.	8bb-	.	.
.	4r	4r	.	4r	4r	4r	4r	8b-	4r	4r
.	.	.	.	.	.	.	.	8ff	.	.
=144	=144	=144	=144	=144	=144	=144	=144	=144	=144	=144
2r	4G	4G	2r	4ee	4b-	4bb-	4G	8ee	4b-	4g
.	.	.	.	.	.	.	.	8ddd	.	.
.	4r	4r	.	4r	4r	4r	4r	8ccc	4r	4r
.	.	.	.	.	.	.	.	8bb-	.	.
=145	=145	=145	=145	=145	=145	=145	=145	=145	=145	=145
2r	2r	2r	2r	2r	2r	2r	2r	8aa	2r	2r
.	.	.	.	.	.	.	.	8bb-	.	.
.	.	.	.	.	.	.	.	8ccc	.	.
.	.	.	.	.	.	.	.	8bb-	.	.
=146	=146	=146	=146	=146	=146	=146	=146	=146	=146	=146
4dd	4F	4F	4g	4ee-	4a	4cc	4F	8aa	4e- 4A	4c
.	.	.	.	.	.	.	.	8ccc	.	.
4r	4r	4r	4r	4r	4r	4r	4r	8ee-	4r	4r
.	.	.	.	.	.	.	.	8ccc	.	.
=147	=147	=147	=147	=147	=147	=147	=147	=147	=147	=147
4dd	4F	4F	4g	4ee-	4a	4cc	4F	8aa	4e- 4A	4c
.	.	.	.	.	.	.	.	8ccc	.	.
4r	4r	4r	4r	4r	4r	4r	4r	8ee-	4r	4r
.	.	.	.	.	.	.	.	8ccc	.	.
=148	=148	=148	=148	=148	=148	=148	=148	=148	=148	=148
2r	4r	4r	2r	2r	2r	2r	2r	8aa	4r	4r
.	.	.	.	.	.	.	.	8eee-	.	.
.	4F	4F	.	.	.	.	.	8r	4e- 4A	4c
.	.	.	.	.	.	.	.	8ccc	.	.
=149	=149	=149	=149	=149	=149	=149	=149	=149	=149	=149
2r	4r	4r	2r	2r	2r	2r	2r	8aa	4r	4r
.	.	.	.	.	.	.	.	8eee-	.	.
.	4F	4F	.	.	.	.	.	8r	4e- 4A	4c
.	.	.	.	.	.	.	.	8ccc	.	.
=150	=150	=150	=150	=150	=150	=150	=150	=150	=150	=150
2r	4r	4r	2r	2r	2r	2r	2r	8aa	4r	4r
.	.	.	.	.	.	.	.	8eee-	.	.
.	4F	4F	.	.	.	.	.	8r	4e- 4A	4c
.	.	.	.	.	.	.	.	8ccc	.	.
=151	=151	=151	=151	=151	=151	=151	=151	=151	=151	=151
2r	4r	4r	2r	2r	2r	2r	2r	8aa	4r	4r
.	.	.	.	.	.	.	.	8eee-	.	.
.	4F	4F	.	.	.	.	.	8r	4e- 4A	4c
.	.	.	.	.	.	.	.	8ddd	.	.
=152	=152	=152	=152	=152	=152	=152	=152	=152	=152	=152
2r	4r	4r	2r	2r	2r	2r	2r	8ccc	4r	4r
.	.	.	.	.	.	.	.	8ccc	.	.
.	4F	4F	.	.	.	.	.	8r	4e- 4A	4c
.	.	.	.	.	.	.	.	8bb-	.	.
=153	=153	=153	=153	=153	=153	=153	=153	=153	=153	=153
2r	4r	4r	2r	2r	2r	2r	2r	8aa	4r	4r
.	.	.	.	.	.	.	.	8aa	.	.
.	4F	4F	.	.	.	.	.	8r	4A 4e-	4c
.	.	.	.	.	.	.	.	8gg	.	.
=154	=154	=154	=154	=154	=154	=154	=154	=154	=154	=154
2r	4r	4r	2r	2r	2r	2r	2r	8ff	4r	4r
.	.	.	.	.	.	.	.	8ff	.	.
.	4F	4F	.	.	.	.	.	8r	4e- 4A	4c
.	.	.	.	.	.	.	.	8ee	.	.
=155	=155	=155	=155	=155	=155	=155	=155	=155	=155	=155
2r	4r	4r	2r	2r	2r	2r	2r	8ff	4r	4r
.	.	.	.	.	.	.	.	8ff	.	.
.	4F	4F	.	.	.	.	.	8r	4e- 4A	4c
.	.	.	.	.	.	.	.	8gg	.	.
=156	=156	=156	=156	=156	=156	=156	=156	=156	=156	=156
2r	4r	4r	2r	2r	2r	2r	2r	8ff	4r	4r
.	.	.	.	.	.	.	.	8ff	.	.
.	4F	4F	.	.	.	.	.	8r	4e- 4A	4c
.	.	.	.	.	.	.	.	8ee	.	.
=157	=157	=157	=157	=157	=157	=157	=157	=157	=157	=157
2r	4r	4r	2r	2r	2r	2r	2r	8ff	4r	4r
.	.	.	.	.	.	.	.	8ff	.	.
.	4F	4F	.	.	.	.	.	8r	4e- 4A	4c
.	.	.	.	.	.	.	.	8gg-	.	.
=158	=158	=158	=158	=158	=158	=158	=158	=158	=158	=158
2r	4r	4r	2r	2r	2r	2r	2r	8ff	4r	4r
.	.	.	.	.	.	.	.	8ff	.	.
.	4F	4F	.	.	.	.	.	8r	4e- 4A	4c
.	.	.	.	.	.	.	.	8ee	.	.
=159	=159	=159	=159	=159	=159	=159	=159	=159	=159	=159
2r	4r	4r	2r	2r	2r	2r	2r	8ff	4r	4r
.	.	.	.	.	.	.	.	8ff	.	.
.	4F	4F	.	.	.	.	.	8r	4e- 4A	4c
.	.	.	.	.	.	.	.	8gg-	.	.
=160	=160	=160	=160	=160	=160	=160	=160	=160	=160	=160
2r	4r	4r	2r	2r	2r	2r	2r	8ff	4r	4r
.	.	.	.	.	.	.	.	8ff	.	.
.	4F	4F	.	.	.	.	.	8r	4e- 4A	4c
.	.	.	.	.	.	.	.	8gg-	.	.
=161	=161	=161	=161	=161	=161	=161	=161	=161	=161	=161
2r	4r	4r	2r	2r	2r	2r	2r	8ff	4r	4r
.	.	.	.	.	.	.	.	8ff	.	.
.	4F	4F	.	.	.	.	.	4r	4e- 4A	4c
=162	=162	=162	=162	=162	=162	=162	=162	=162	=162	=162
2r	2r	2r	2r	2r	2r	2r	2r	4gg-	2r	2r
.	.	.	.	.	.	.	.	4ff	.	.
=163	=163	=163	=163	=163	=163	=163	=163	=163	=163	=163
4r	4r	4r	4r	4r	4r	4r	4r	8ff	4r	4r
.	.	.	.	.	.	.	.	8r	.	.
8r	8r	8r	8r	8r	8r	8r	8r	8r	8r	8r
8r	8r	8r	8r	8r	8r	8r	8f	8ff	8ff	8r
=164	=164	=164	=164	=164	=164	=164	=164	=164	=164	=164
2r	8r	8r	2r	2r	2r	2r	4f	4ff	4ff	8r
.	8A	8A	.	.	.	.	.	.	.	8A
.	8B-	8B-	.	.	.	.	8d	8dd	8dd	8B-
.	8d	8d	.	.	.	.	8B-	8b-	8b-	8d
=165	=165	=165	=165	=165	=165	=165	=165	=165	=165	=165
2r	4.f	4.f	2r	2r	2r	2r	8A	8a	8a	[2f
.	.	.	.	.	.	.	8c	8cc	8cc	.
.	.	.	.	.	.	.	8F	8f	8f	.
.	8e-	8e-	.	.	.	.	8A	8a	8a	.
=166	=166	=166	=166	=166	=166	=166	=166	=166	=166	=166
2r	8d	8d	2r	2r	2r	2r	8B-	8b-	8b-	4.f]
.	8A	8A	.	.	.	.	8c	8cc	8cc	.
.	8B-	8B-	.	.	.	.	8d	8dd	8dd	.
.	8E-	8E-	.	.	.	.	8e-	8ee-	8cc	8g
=167	=167	=167	=167	=167	=167	=167	=167	=167	=167	=167
2r	8F	8F	2r	2r	2r	2r	4d	4dd	4b-	4f
.	8FF	8FF	.	.	.	.	.	.	.	.
.	8FF	8FF	.	.	.	.	8c	8cc	8a	4r
.	8r	8r	.	.	.	.	8f	8ff	8ff	.
=168	=168	=168	=168	=168	=168	=168	=168	=168	=168	=168
2r	8r	8r	2r	2r	2r	2r	4f	4ff	4ff	8r
.	8A	8A	.	.	.	.	.	.	.	8c
.	8B-	8B-	.	.	.	.	8d	8dd	8dd	8d
.	8d	8d	.	.	.	.	8B-	8b-	8b-	8d
=169	=169	=169	=169	=169	=169	=169	=169	=169	=169	=169
2r	8r	8r	2r	2r	2r	2r	4g	4gg	4gg	8r
.	8B	8B	.	.	.	.	.	.	.	8d
.	8c	8c	.	.	.	.	8e-	8ee-	8ee-	8e-
.	8e-	8e-	.	.	.	.	8c	8cc	8cc	8e-
=170	=170	=170	=170	=170	=170	=170	=170	=170	=170	=170
2r	2F	2F	2r	2r	2r	2r	8B-	8b-	8b-	8d
.	.	.	.	.	.	.	8B-	8b-	8b-	8d
.	.	.	.	.	.	.	8c	8cc	8cc	8e-
.	.	.	.	.	.	.	16B-	16b-	16b-	16d
.	.	.	.	.	.	.	16A	16a	16a	16c
=171	=171	=171	=171	=171	=171	=171	=171	=171	=171	=171
2r	8B-	8B-	2r	2r	2r	2r	4B-	4b-	4b-	4B-
.	8F	8F	.	.	.	.	.	.	.	.
.	8BB-	8BB-	.	.	.	.	4r	8r	4r	4r
.	8r	8r	.	.	.	.	.	8bb-	.	.
=172	=172	=172	=172	=172	=172	=172	=172	=172	=172	=172
2r	8r	8r	2r	2r	2r	2r	2r	4bb-	8r	8r
.	8d	8d	.	.	.	.	.	.	8f	8d
.	8c	8c	.	.	.	.	.	8aa	8e-	8c
.	8r	8r	.	.	.	.	.	8ccc	8r	8r
=173	=173	=173	=173	=173	=173	=173	=173	=173	=173	=173
2r	8r	8r	2r	2r	2r	2r	2r	4ee-	8r	8r
.	8A	8A	.	.	.	.	.	.	8c	8f
.	8B-	8B-	.	.	.	.	.	8dd	8d	8f
.	8r	8r	.	.	.	.	.	8gg	8b-	8r
=174	=174	=174	=174	=174	=174	=174	=174	=174	=174	=174
2r	8r	8r	2r	2r	2r	2r	2r	8.gg	8.b-	8r
.	8B-	8B-	.	.	.	.	.	.	.	8d
.	.	.	.	.	.	.	.	32aa	32cc	.
.	.	.	.	.	.	.	.	32gg	32b-	.
.	8c	8c	.	.	.	.	.	8ff	8a	8c
.	8C	8C	.	.	.	.	.	8ee	8g	8B-
=175	=175	=175	=175	=175	=175	=175	=175	=175	=175	=175
2r	8FF	8FF	2r	2r	2r	2r	2r	4ee	4g	4B-
.	8F	8F	.	.	.	.	.	.	.	.
.	8F	8F	.	.	.	.	.	8ff	8a	8A
.	8F	8F	.	.	.	.	.	8dd	8b	8r
=176	=176	=176	=176	=176	=176	=176	=176	=176	=176	=176
2r	8FF	8FF	2r	2r	2r	2r	2r	4dd	4b	8F
.	8F	8F	.	.	.	.	.	.	.	8f
.	8F	8F	.	.	.	.	.	8ee-	8cc	8f
.	8F	8F	.	.	.	.	.	8cc	8a	8f
=177	=177	=177	=177	=177	=177	=177	=177	=177	=177	=177
2r	8FF	8FF	2r	2r	2r	2r	2r	4cc	4a	8F
.	8F	8F	.	.	.	.	.	.	.	8f
.	8F	8F	.	.	.	.	.	8dd	8b-	8f
.	8F	8F	.	.	.	.	.	8b-	8g	8f
=178	=178	=178	=178	=178	=178	=178	=178	=178	=178	=178
2r	8FF	8FF	2r	2r	2r	2r	2r	8a	8f	8F
.	8F	8F	.	.	.	.	.	8a	8f	8F
.	8F	8F	.	.	.	.	.	8g	8e	8F
.	8F	8F	.	.	.	.	.	16f	16d	8F
.	.	.	.	.	.	.	.	16g	16e	.
=179	=179	=179	=179	=179	=179	=179	=179	=179	=179	=179
2r	8FF	8FF	2r	4.r	4.r	4.r	2r	4.f	4.f	8F
.	8F	8F	.	.	.	.	.	.	.	8f
.	8FF	8FF	.	.	.	.	.	.	.	8F
.	8r	8r	.	8ff	8ff	8ff	.	8ff	8ff	8r
=180	=180	=180	=180	=180	=180	=180	=180	=180	=180	=180
4g	8r	8r	4G	4ff	4ff	4ff	8r	4ff	4ff	8r
.	8AA	8AA	.	.	.	.	8AA	.	.	8A
4cc	8BB-	8BB-	4c	8dd	8dd	8dd	8BB-	8dd	8dd	8B-
.	8D	8D	.	8b-	8b-	8b-	8D	8b-	8b-	8d
=181	=181	=181	=181	=181	=181	=181	=181	=181	=181	=181
4g	4F	4F	4G	8a	[2f	8a	4F	8a	8a	4f
.	.	.	.	8cc	.	8cc	.	8cc	8cc	.
4r	8r	8r	4r	8f	.	8f	8r	8f	8f	8r
.	8f	8f	.	8ff	.	8r	8f	8r	8r	8f
=182	=182	=182	=182	=182	=182	=182	=182	=182	=182	=182
4dd	4f	4f	4g	[2ff	2f_	8r	4f	8r	8r	4f
.	.	.	.	.	.	8aa	.	8aa	8cc	.
4ee	8d	8d	4cc	.	.	8bb-	8d	8bb-	8dd	8d
.	8B-	8B-	.	.	.	8ddd	8B-	8ddd	8ff	8B-
=183	=183	=183	=183	=183	=183	=183	=183	=183	=183	=183
4dd	8A	8A	4g	2ff_	2f_	4.ccc	8A	4.ccc	4.ff	8f
.	8c	8c	.	.	.	.	8c	.	.	8f
4r	8F	8F	4r	.	.	.	8F	.	.	8f
.	8A	8A	.	.	.	8eee-	8A	8eee-	8cc	8f
=184	=184	=184	=184	=184	=184	=184	=184	=184	=184	=184
4cc	8B-	8B-	4e	2ff_	2f_	8ddd	8B-	8ddd	8dd	8f
.	8c	8c	.	.	.	8aa	8c	8aa	8ee-	8f
4r	8d	8d	4r	.	.	8bb-	8d	8bb-	8ff	8f
.	8A	8A	.	.	.	8eee-	8A	8eee-	8cc	8f
=185	=185	=185	=185	=185	=185	=185	=185	=185	=185	=185
4cc	8B-	8B-	4e	8ff]	8f]	8ddd	8B-	8ddd	8dd	8f
.	8c	8c	.	8aa	8ee-	8aa	8c	8aa	8ee-	8f
4r	8d	8d	4r	8bb-	8dd	8bb-	8d	8bb-	8ff	8d
.	8D	8D	.	8bb-	8b-	8aa-	8D	8aa-	8f	8b-
=186	=186	=186	=186	=186	=186	=186	=186	=186	=186	=186
4cc	8E-	8E-	4c	2bb-	2b-	8gg	8E-	8gg	8g	8b-
.	8F	8F	.	.	.	8dd	8F	8dd	8a-	8b-
4r	8G	8G	4r	.	.	8ee-	8G	8ee-	8b-	8b-
.	8D	8D	.	.	.	8aa-	8D	8aa-	8f	8b-
=187	=187	=187	=187	=187	=187	=187	=187	=187	=187	=187
4cc	8E-	8E-	4c	4.bb-	4.b-	8gg	8E-	8gg	8g	8b-
.	8F	8F	.	.	.	8dd	8F	8dd	8a-	8b-
4r	8G	8G	4r	.	.	8ee-	8G	8ee-	8b-	8b-
.	8E-	8E-	.	8gg	8ee-	8gg	8E-	8gg	8ee-	8b-
=188	=188	=188	=188	=188	=188	=188	=188	=188	=188	=188
2cc	8F	8F	2G	8ff	8dd	8ff	8F	8ff	8dd	8f
.	8F	8F	.	8dd	8b-	8dd	8F	8dd	8b-	8f
.	8F	8F	.	8ee-	8cc	8ee-	8F	8ee-	8cc	8f
.	8F	8F	.	8cc	8a	8cc	8F	8cc	8a	8f
=189	=189	=189	=189	=189	=189	=189	=189	=189	=189	=189
4cc	4BB-	4BB-	4c	2ff	4b-	4b-	4BB-	4b-	4b-	4B-
4r	4r	4r	4r	.	4r	4r	4r	8r	4r	4r
.	.	.	.	.	.	.	.	8ff	.	.
=190	=190	=190	=190	=190	=190	=190	=190	=190	=190	=190
2r	8r	8r	2r	[2ff	2r	2r	2r	4ff	8r	8r
.	8A	8A	.	.	.	.	.	.	8e-	8c
.	8A	8A	.	.	.	.	.	8ee-	8e-	8c
.	8A	8A	.	.	.	.	.	8cc	8e-	8c
=191	=191	=191	=191	=191	=191	=191	=191	=191	=191	=191
2r	8r	8r	2r	2ff_	2r	2r	2r	4ff	8r	8r
.	8B-	8B-	.	.	.	.	.	.	8d	8d
.	8B-	8B-	.	.	.	.	.	8dd	8d	8d
.	8B-	8B-	.	.	.	.	.	8b-	8d	8d
=192	=192	=192	=192	=192	=192	=192	=192	=192	=192	=192
2r	8r	8r	2r	2ff_	2r	2r	2r	4ff	8r	8r
.	8e-	8e-	.	.	.	.	.	.	8a	8f
.	8e-	8e-	.	.	.	.	.	8cc	8a	8f
.	8e-	8e-	.	.	.	.	.	8a	8a	8f
=193	=193	=193	=193	=193	=193	=193	=193	=193	=193	=193
2r	4d	4d	2r	2ff_	2r	2r	2r	8b-	8b-	4f
.	.	.	.	.	.	.	.	8b-	8b-	.
.	4r	4r	.	.	.	.	.	8b-	8b-	4r
.	.	.	.	.	.	.	.	8b	8b	.
=194	=194	=194	=194	=194	=194	=194	=194	=194	=194	=194
2r	4A	4A	2r	2ff_	2r	2r	2r	8cc	8cc	4f
.	.	.	.	.	.	.	.	8cc	8cc	.
.	4r	4r	.	.	.	.	.	8cc	8cc	4r
.	.	.	.	.	.	.	.	8cc#	8cc#	.
=195	=195	=195	=195	=195	=195	=195	=195	=195	=195	=195
2r	4B-	4B-	2r	2ff_	2r	2r	2r	8dd	8dd	4f
.	.	.	.	.	.	.	.	8dd	8dd	.
.	4r	4r	.	.	.	.	.	8dd	8dd	4r
.	.	.	.	.	.	.	.	8b-	8b-	.
=196	=196	=196	=196	=196	=196	=196	=196	=196	=196	=196
2r	4c	4c	2r	2ff_	2r	2r	2r	8ee-	8ee-	4a
.	.	.	.	.	.	.	.	8ee-	8ee-	.
.	4r	4r	.	.	.	.	.	8ee-	8ee-	4r
.	.	.	.	.	.	.	.	8ee	8ee	.
=197	=197	=197	=197	=197	=197	=197	=197	=197	=197	=197
2r	8d	8d	2r	2ff]	2r	2r	2r	2ff	2ff	8B-
.	8d	8d	.	.	.	.	.	.	.	8B-
.	8d	8d	.	.	.	.	.	.	.	8B-
.	8d	8d	.	.	.	.	.	.	.	8B-
=198	=198	=198	=198	=198	=198	=198	=198	=198	=198	=198
[2cc	8D	8D	[2c	2aa-	2ff	2bb-	2D	2aa-	2ff 2b-	8B-
.	8D	8D	.	.	.	.	.	.	.	8B-
.	8D	8D	.	.	.	.	.	.	.	8B-
.	8D	8D	.	.	.	.	.	.	.	8B-
=199	=199	=199	=199	=199	=199	=199	=199	=199	=199	=199
2cc_	8E-	8E-	2c_	4gg	2gg	2bb-	[2E-	4gg	2gg 2b-	8B-
.	8E-	8E-	.	.	.	.	.	.	.	8B-
.	8E-	8E-	.	4bb-	.	.	.	4bb-	.	8B-
.	8E-	8E-	.	.	.	.	.	.	.	8B-
=200	=200	=200	=200	=200	=200	=200	=200	=200	=200	=200
2cc]	8E-	8E-	2c]	4gg	4ee-	4gg	2E-]	4gg	4ee-	8e-
.	8E-	8E-	.	.	.	.	.	.	.	8e-
.	8E-	8E-	.	4ee-	4cc	4ee-	.	4ee-	4cc	8e-
.	8E-	8E-	.	.	.	.	.	.	.	8e-
=201	=201	=201	=201	=201	=201	=201	=201	=201	=201	=201
[2g	8F	8F	[2G	2dd	2b-	2dd	[2F	4dd	4b-	8f
.	8F	8F	.	.	.	.	.	.	.	8f
.	8F	8F	.	.	.	.	.	4bb- 4dd 4f	4bb- 4dd 4f	8f
.	8F	8F	.	.	.	.	.	.	.	8f
=202	=202	=202	=202	=202	=202	=202	=202	=202	=202	=202
2g]	8F	8F	2G]	2cc	2a	2cc	2F]	4f	4f	8f
.	8F	8F	.	.	.	.	.	.	.	8f
.	8F	8F	.	.	.	.	.	4aa 4cc 4f	4aa 4cc 4f	8f
.	8F	8F	.	.	.	.	.	.	.	8f
=203	=203	=203	=203	=203	=203	=203	=203	=203	=203	=203
4cc	4BB-	4BB-	4e	4b-	4b-	4b-	4B-	4f 4dd 4bb-	4f 4dd 4bb-	4B-
4r	4r	4r	4r	8r	4r	4r	4r	4r	4r	4r
.	.	.	.	8ff	.	.	.	.	.	.
=204	=204	=204	=204	=204	=204	=204	=204	=204	=204	=204
2cc	2r	2r	2e	4ff	2r	2r	2r	2r	2r	2r
.	.	.	.	8dd	.	.	.	.	.	.
.	.	.	.	8b-	.	.	.	.	.	.
=205	=205	=205	=205	=205	=205	=205	=205	=205	=205	=205
4dd	2r	2r	4g	8a	4.r	2r	2r	4.r	2r	2r
.	.	.	.	8cc	.	.	.	.	.	.
4r	.	.	4r	8f	.	.	.	.	.	.
.	.	.	.	8r	8gg	.	.	8gg	.	.
=206	=206	=206	=206	=206	=206	=206	=206	=206	=206	=206
2r	4F	4F	2r	2r	4gg	2r	2F	4gg	4A	4e-
.	4r	4r	.	.	8ee-	.	.	8ee-	4r	4r
.	.	.	.	.	8cc	.	.	8cc	.	.
=207	=207	=207	=207	=207	=207	=207	=207	=207	=207	=207
2r	4B-	4B-	2r	4.r	8dd	2r	4B-	8dd	4B-	4d
.	.	.	.	.	8ff	.	.	8ff	.	.
.	4r	4r	.	.	8b-	.	4r	8b-	4r	4r
.	.	.	.	8ff	8r	.	.	8r	.	.
=208	=208	=208	=208	=208	=208	=208	=208	=208	=208	=208
2cc	2r	2r	2e	4ff	2r	2r	2r	2r	2r	2r
.	.	.	.	8dd	.	.	.	.	.	.
.	.	.	.	8b-	.	.	.	.	.	.
=209	=209	=209	=209	=209	=209	=209	=209	=209	=209	=209
4dd	2r	2r	4g	8a	4.r	2r	2r	4.r	2r	2r
.	.	.	.	8cc	.	.	.	.	.	.
4r	.	.	4r	8f	.	.	.	.	.	.
.	.	.	.	8r	8gg	.	.	8gg	.	.
=210	=210	=210	=210	=210	=210	=210	=210	=210	=210	=210
2r	4F	4F	2r	2r	4gg	2r	2F	4gg	4A	4e-
.	4r	4r	.	.	8ee-	.	.	8ee-	4r	4r
.	.	.	.	.	8cc	.	.	8cc	.	.
=211	=211	=211	=211	=211	=211	=211	=211	=211	=211	=211
4.r	4B-	4B-	4.r	4.r	8dd	4.r	4B-	8dd	4B-	4d
.	.	.	.	.	8ff	.	.	8ff	.	.
.	8r	8r	.	.	8b-	.	8r	8b-	8r	8r
8dd	8F	8F	8g	8cc	8a	8cc	8F	8cc	8e- 8a	8f
=212	=212	=212	=212	=212	=212	=212	=212	=212	=212	=212
4ee	4B-	4B-	4cc	4dd	4b-	8dd	4B-	8dd	4d 4b-	4b-
.	.	.	.	.	.	8ff	.	8ff	.	.
8r	8r	8r	8r	8r	8r	8b-	8r	8b-	8r	8r
8dd	8F	8F	8g	8cc	8a	8cc	8F	8cc	8e- 8a	8f
=213	=213	=213	=213	=213	=213	=213	=213	=213	=213	=213
4ee	4B-	4B-	4cc	4dd	4b-	8dd	4B-	8dd	4d 4b-	4b-
.	.	.	.	.	.	8ff	.	8ff	.	.
8r	8r	8r	8r	8r	8r	8b-	8r	8b-	8r	8r
8dd	8F	8F	8g	8cc	8a	8cc	8F	8cc	8e- 8a	8f
=214	=214	=214	=214	=214	=214	=214	=214	=214	=214	=214
4ee	4B-	4B-	8cc	4dd	4b-	8dd	4B-	8dd	4b- 4d	4b-
.	.	.	4r	.	.	8ff	.	8ff	.	.
8r	8r	8r	.	8r	8r	8b-	8r	8b-	8r	8r
8dd	8F	8F	8g	8aa	8cc	8aa	8F	8aa	8cc	8f
=215	=215	=215	=215	=215	=215	=215	=215	=215	=215	=215
8ee	8B-	8B-	8cc	8bb-	8dd	8bb-	8B-	8bb-	8dd	8b-
8dd	8F	8F	8g	8aa	8cc	8aa	8F	8aa	8cc	8f
8ee	8B-	8B-	8cc	8bb-	8dd	8bb-	8B-	8bb-	8dd	8b-
8dd	8F	8F	8g	8aa	8cc	8aa	8F	8aa	8cc	8f
=216	=216	=216	=216	=216	=216	=216	=216	=216	=216	=216
4ee	4B-	4B-	4cc	4bb-	4dd	4bb-	4B-	4bb-	4dd	4b-
8r	8r	8r	8r	8r	8r	8r	8r	8r	8r	8r
8dd	8F	8F	8g	8aa	8cc	8ccc	8F	8ccc	8aa	8f
=217	=217	=217	=217	=217	=217	=217	=217	=217	=217	=217
8ee	8BB-	8BB-	8cc	8bb-	8dd	8ddd	8BB-	8ddd	8bb-	8B-
8dd	8F	8F	8g	8aa	8cc	8ccc	8F	8ccc	8aa	8f
8ee	8BB-	8BB-	8cc	8bb-	8dd	8ddd	8BB-	8ddd	8bb-	8B-
8dd	8F	8F	8g	8aa	8cc	8ccc	8F	8ccc	8aa	8f
=218	=218	=218	=218	=218	=218	=218	=218	=218	=218	=218
4ee	4BB-	4BB-	4cc	4bb-	4dd	4ddd	4BB-	4ddd	4bb-	4B-
4r	4r	4r	4r	4r	4r	4r	4r	4r	4r	4r
=219	=219	=219	=219	=219	=219	=219	=219	=219	=219	=219
4ee	4BB-	4BB-	4cc	4bb-	4dd	4bb-	4BB-	4bb- 4b- 4d	4bb- 4d 4b-	4B-
4ee	4BB-	4BB-	4cc	4bb-	4dd	4bb-	4BB-	4bb- 4b- 4d	4bb- 4b- 4d	4B-
=220	=220	=220	=220	=220	=220	=220	=220	=220	=220	=220
4ee	4BB-	4BB-	4cc	4bb-	4dd	4bb-	4BB-	4bb- 4d 4b-	4bb- 4b- 4d	4B-
4r	4r	4r	4r	4r	4r	4r	4r	4r	4r	4r
==	==	==	==	==	==	==	==	==	==	==
*-	*-	*-	*-	*-	*-	*-	*-	*-	*-	*-
!!!RWG1: This file contains only pitch and duration data.
!!!RWG2: Transposing instruments are not transposed.
!!!RWG3: Spines may have incompatible meters.
!!!RWG4: Durations of rests and tied notes may be interpreted.
!!!RWG: Key is interpreted using the Humdrum key tool.
!!!OPT: La Reine
!!!AFT: stage1
!!!END: 1997/04/15
!!format changes:
!!content changes:
!!public access: complete
!!!KEY: 586382507
!!!EMD: Converted from MuseData to Humdrum Dec 16, 2000, by Andreas Kornstaedt using muse2kern.
